packages/ui-icons/svg/Solid/move-up-top.svg

<svg viewBox="0 0 1920 1920" version="1.1" xmlns="http://www.w3.org/2000/svg">
    <path d="M338.823529,57.9661176 L338.823529,280.121412 L0,280.121412 L0,1861.41082 L225.882353,1861.41082 L225.882353,506.116706 L338.823529,506.116706 L338.823529,728.384941 L745.637647,393.175529 L338.823529,57.9661176 Z M1694.23059,506.116706 L1920.11294,506.116706 L1920.11294,280.121412 L1694.23059,280.121412 L1694.23059,506.116706 Z M1355.29412,506.116706 L1581.28941,506.116706 L1581.28941,280.121412 L1355.29412,280.121412 L1355.29412,506.116706 Z M1016.47059,506.116706 L1242.35294,506.116706 L1242.35294,280.121412 L1016.47059,280.121412 L1016.47059,506.116706 Z M677.76,957.881412 L1920.11294,957.881412 L1920.11294,731.999059 L677.76,731.999059 L677.76,957.881412 Z M677.76,1409.64612 L1920.11294,1409.64612 L1920.11294,1183.65082 L677.76,1183.65082 L677.76,1409.64612 Z M677.76,1861.41082 L1920.11294,1861.41082 L1920.11294,1635.52847 L677.76,1635.52847 L677.76,1861.41082 Z" stroke="none" stroke-width="1" fill-rule="evenodd"/>
</svg>

<svg viewBox="0 0 1920 1920" version="1.1" xmlns="http://www.w3.org/2000/svg">
    <path d="M338.824 57.966v222.155H0v1581.29h225.882V506.117h112.942v222.268l406.814-335.21L338.824 57.967zm1355.407 448.15h225.882V280.122H1694.23v225.996zm-338.937 0h225.995V280.122h-225.995v225.996zm-338.823 0h225.882V280.122H1016.47v225.996zM677.76 957.882h1242.353V732H677.76v225.882zm0 451.765h1242.353v-225.995H677.76v225.995zm0 451.765h1242.353v-225.883H677.76v225.883z" stroke="none" stroke-width="1" fill-rule="evenodd"/>
</svg>
